X:35
T:The Green Willis
S:Bernie Waugh
R:Reel
M:4/4
L:1/8
K:D
|:(3ABc|\
"D"dAdA dAfe|dAdA dAgf|"A"edcB ABcd|edcB A2 (3ABc|
"D"dAdA dAfe|dAdA "G"gfgf|"A"edcA BAcA|"D"d2d/e/d/c/d2:|
|:fg|\
"D"agfg agfe|d2d/e/d/c/d2 ef|"G"gfga bagf|"A"edcBA2 fg|
"D"agfg agfe|dAdA "G"gfgf|"A"edcA BAcA|"D"d2d/e/d/c/d2:|

